src/pos-icons/longitude.svg

<svg height="24" viewBox="0 0 24 24" width="24" xmlns="http://www.w3.org/2000/svg"><path d="m12 2a10 10 0 1 0 10 10 10.03 10.03 0 0 0 -10-10m-2.6 17.6a8.05 8.05 0 0 1 0-15.2 16.45 16.45 0 0 0 -1.9 7.6 16.45 16.45 0 0 0 1.9 7.6m2.6.4a13.81 13.81 0 0 1 -2.5-8 13.81 13.81 0 0 1 2.5-8 13.81 13.81 0 0 1 2.5 8 13.81 13.81 0 0 1 -2.5 8m2.6-.4a16.15 16.15 0 0 0 0-15.2 8.03 8.03 0 0 1 5.4 7.6 7.9 7.9 0 0 1 -5.4 7.6z"/></svg>

<?xml version="1.0" encoding="UTF-8"?><!DOCTYPE svg PUBLIC "-//W3C//DTD SVG 1.1//EN" "http://www.w3.org/Graphics/SVG/1.1/DTD/svg11.dtd"><svg xmlns="http://www.w3.org/2000/svg" xmlns:xlink="http://www.w3.org/1999/xlink" version="1.1" id="mdi-longitude" width="24" height="24" viewBox="0 0 24 24"><path d="M12 2A10 10 0 1 0 22 12A10.03 10.03 0 0 0 12 2M9.4 19.6A8.05 8.05 0 0 1 9.4 4.4A16.45 16.45 0 0 0 7.5 12A16.45 16.45 0 0 0 9.4 19.6M12 20A13.81 13.81 0 0 1 9.5 12A13.81 13.81 0 0 1 12 4A13.81 13.81 0 0 1 14.5 12A13.81 13.81 0 0 1 12 20M14.6 19.6A16.15 16.15 0 0 0 14.6 4.4A8.03 8.03 0 0 1 20 12A7.9 7.9 0 0 1 14.6 19.6Z" /></svg>
